src/assets/flags/fm.svg

<?xml version="1.0" encoding="UTF-8"?>
<svg xmlns="http://www.w3.org/2000/svg" xmlns:xlink="http://www.w3.org/1999/xlink" width="25px" height="19px" viewBox="0 0 25 19" version="1.1">
<g id="surface1">
<rect x="0" y="0" width="25" height="19" style="fill:rgb(40.392157%,59.215689%,83.92157%);fill-opacity:1;stroke:none;"/>
<path style=" stroke:none;fill-rule:evenodd;fill:rgb(100%,100%,100%);fill-opacity:1;" d="M 12.519531 4.578125 L 11.332031 5.402344 L 11.785156 4.066406 L 10.59375 3.242188 L 12.066406 3.242188 L 12.519531 1.90625 L 12.976562 3.246094 L 14.445312 3.246094 L 13.253906 4.066406 L 13.710938 5.402344 M 12.519531 14.511719 L 11.332031 13.683594 L 11.785156 15.023438 L 10.59375 15.847656 L 12.066406 15.847656 L 12.519531 17.183594 L 12.976562 15.84375 L 14.445312 15.847656 L 13.253906 15.019531 L 13.710938 13.683594 M 6.792969 10.246094 L 5.890625 11.386719 L 5.945312 9.972656 L 4.566406 9.535156 L 5.976562 9.101562 L 6.023438 7.6875 L 6.84375 8.832031 L 8.253906 8.394531 L 7.351562 9.535156 L 8.171875 10.679688 M 18.242188 10.242188 L 19.144531 11.386719 L 19.09375 9.972656 L 20.46875 9.535156 L 19.058594 9.101562 L 19.011719 7.6875 L 18.191406 8.832031 L 16.78125 8.394531 L 17.6875 9.535156 L 16.863281 10.679688 "/>
</g>
</svg>

<svg xmlns="http://www.w3.org/2000/svg" width="25" height="19" viewBox="0 0 25 19"><path d="M0 0h25v19H0z" style="fill:#6797d6;fill-opacity:1;stroke:none"/><path d="m12.52 4.578-1.188.824.453-1.336-1.191-.824h1.472l.454-1.336.457 1.34h1.468l-1.191.82.457 1.336m-1.191 9.11-1.188-.828.453 1.34-1.191.824h1.472l.454 1.336.457-1.34 1.468.004-1.191-.828.457-1.336m-6.918-3.438-.902 1.14.054-1.413-1.379-.438 1.41-.433.047-1.415.82 1.145 1.41-.437-.901 1.14.82 1.145m10.07-.438.903 1.145-.051-1.414 1.375-.438-1.41-.433-.047-1.415-.82 1.145-1.41-.437.906 1.14-.825 1.145" style="stroke:none;fill-rule:evenodd;fill:#fff;fill-opacity:1"/></svg>
